X:18501
T:Walzer - Walzer/Waltz/Valse
C:Steirisches Volkslied Archiv 3/460 
B:Musikantenstückln 85/86 H.Härtel, R.Pietsch
Z:abc transcription Simon Wascher
N:please mail errors to simon.wascher@chello.at
M:3/4
L:1/4
K:G
DB>D|A>DG|DG>D|F3|
Ec>E|B>EA|DA>D|G3|
DB>D|A>DG|DG>D|F3|
Ec>E|B>EA|DE/D/E/F/|G3:|
|:B/A/c/B/A/G/|F2E|G/F/A/G/F/E/|E2D|
DG>B|c3|DF>A|B3|
B/A/c/B/A/G/|F2E|G/F/A/G/F/E/|E2D|
DG>B|d2c|FB>A|G:|
|:DD|D>GB|G>Bd|B>dg|d3|
cDD|A3|BDD|G2F/E/|
D>GB|G>Bd|B>dg|d3|
cDD|ABA|G>GG-|G:|z||
|:Ge>d|c2F|ze>d|B2G|zG/F/E/D/|
cz/c/F|zG/F/E/D/|Bz/B/G|ze>d|
c2F|ze>d|B2G|zG/F/E/D/|
cz/c/F|dz/d/F|G3-|G:|
|:GA|Bze|zd>B|c2F|zAB|
czd|fze|d3-|dGA|
Bze|zdB|c2F|zAB|
czd|ezf|g>gg|g:|


